!!!!SEGMENT: pl-kc--40102-iii-1-saf--001-036_zielenski-mikolaj--offertoria-totius-anni-in-festo-dedicationis-ecclasiae-domine-deus.krn
!!!cenid: 16xx:1589
!!!COM: Zieleński, Mikołaj
!!!COM-rismID: pe30013481
!!!CDT: <1611->1611
!!!CNT: Polish
!!!GTL: Offertoria totius anni
!!!OTL: In festo Dedicationis Ecclasiae/Domine Deus
!!!OMV: 036
!!!PDT: 1611
!!!AGN:
!!!YEC: Copyright 2022 Narodowy Instytut Fryderyka Chopina (https://polishscores.org)
!!!YEM: License CC-BY-4.0 (https://creativecommons.org/licenses/by/4.0)
!!!SMS-siglum: PL-Kc
!!!SMS-shelfmark: 40102 III/1 Saf.
!!!SMS-shelfwork: 001-036 G
!!!SMS-variant:
!!!SMS-altvar:
!!!NIFC-rismSourceID: 990069886
!!!NIFC-rismChildID: 990069886
!!!NIFC-islandoraID: none
!!!URL-pdf-islandora:
!!!URL-scan: https://cyfrowe.mnk.pl/dlibra/publication/24235/edition/23926/content?ref=desc @EN{Scan on The National Museum in Krakow Website} @PL{Skany w portalu Biblioteka Cyfrowa Muzeum Narodowego w Krakowie}
!!!IIIF:
!!!ONB-nifc: UWAGA: str. 33. Uwaga: W xml metrum 2/1 do źródłowego C| i odpowiednio 3/1 do 3/2
!!!AIN: 4 organ
!!!key:
**kern	**kern	**kern	**kern
*group1	*group1	*group1	*group1
*part4	*part3	*part2	*part1
*staff4	*staff3	*staff2	*staff1
*I""Organo	*I""Organo	*I""Organo	*I""Organo
*I''org	*I''org	*I''org	*I''org
*Iorgan	*Iorgan	*Iorgan	*Iorgan
*ICklav	*ICklav	*ICklav	*ICklav
*clefF4	*clefC3	*clefF3	*clefG2
*k[b-]	*k[b-]	*k[b-]	*k[b-]
*g:	*g:	*g:	*g:
*M2/1	*M2/1	*M2/1	*M2/1
*met(C|)	*met(C|)	*met(C|)	*met(C|)
=1	=1	=1	=1
!	!	!LO:TX:t=P:problem=przy kluczu B- BB-	!
!	!	!LO:TX:b:t=Domine Deus.	!LO:TX:a:t=In feſto Dedicationis Eccleſiae. A 8.
00r	00r	1G	1dd
.	.	2G\	2dd\
.	.	2F#X/	2a/
=2-	=2-	=2-	=2-
!	!	!	!LO:N:acc=#
.	.	1G	1bn
.	.	2C/	[y1cc
.	.	2c\	.
=3	=3	=3	=3
!	!	!	!LO:N:xstem:cue:vis=4
00r	00r	2A\	2cc\]
.	.	4A\	2ff\
.	.	4A\	.
.	.	2B-\	2dd\
.	.	2G\	4dd\
.	.	.	4dd\
=4-	=4-	=4-	=4-
.	.	2.c\	2ee\
.	.	.	1cc
.	.	4B-\	.
.	.	4A\	.
.	.	4G\	.
.	.	4F/	[<2ff\
.	.	4E/	.
=5	=5	=5	=5
0r	0r	2D/	2ff\]
.	.	2C#X/	1ee
.	.	4D/	.
.	.	4E/	.
.	.	4F/	2.dd\
.	.	8E/	.
.	.	8D/	.
=6-	=6-	=6-	=6-
1r	1r	1A	.
.	.	.	8cc#X\
!	!	!	!LO:SIC:v:o=8b-\
.	.	.	8bn\
.	.	.	2cc#\
1D	1a	1D	1dd
=7	=7	=7	=7
2D/	2a\	00r	00r
2C#X/	2e\	.	.
1D	1f#X	.	.
=8-	=8-	=8-	=8-
2GG/	1.g	.	.
2G\	.	.	.
2E\	.	.	.
4E\	2g\	.	.
4E\	.	.	.
*custos:F	*custos:f	*custos:D	*custos:gg
!!LO:LB:g=original
=9	=9	=9	=9
2F\	2f\	00r	00r
2.D/	4f\	.	.
.	4f\	.	.
.	2f\	.	.
4C/	.	.	.
4BB-/	1d	.	.
4AA/	.	.	.
=10-	=10-	=10-	=10-
1GG	.	.	.
.	2.g\	.	.
2.C/	.	.	.
.	4f\	.	.
.	4e\	.	.
4BB-/	4d\	.	.
=11	=11	=11	=11
2AA/	2e\	00r	00r
2FF/	1a	.	.
2.BB-/	.	.	.
.	2.g\	.	.
4C/	.	.	.
=12-	=12-	=12-	=12-
1D	.	.	.
.	8f#X\	.	.
.	8e\	.	.
.	2f#\	.	.
1GG	1g	.	.
=13	=13	=13	=13
1r	1r	1r	1r
1GG	1d	1D	1gg
=14-	=14-	=14-	=14-
2GG/	2d\	2D/	2gg\
2GG/	2g\	2D/	2dd\
1C	1c	1C	1ee
=15	=15	=15	=15
2FF/	2c/	2C/	1.ff
2F\	2c/	2r	.
2D/	2d\	2r	.
4D/	4d\	2D/	2ff\
4D/	4d\	.	.
=16-	=16-	=16-	=16-
2.G\	2d\	2B-\	2dd\
.	2.g\	2.G\	4dd\
4F\	.	.	4dd\
2E-X\	.	.	2.gg\
.	4f\	4G\	.
[>2C/	4e-X\	[<2G\	.
.	4d\	.	4ff\
=17	=17	=17	=17
2C/]	1.c	2G\]	2ee-X\
2.F\	.	1A	1cc
4E\	.	.	.
4D/	1d	1F	2.ff\
4C/	.	.	.
=18-	=18-	=18-	=18-
1.BB-	.	.	.
.	.	.	4eeny\
.	2d\	2F/	4dd\
.	.	.	4cc\
.	2.f\	[<1F	2b-/
2AA/	.	.	[y2ff\
.	4e\	.	.
=19	=19	=19	=19
!	!	!	!LO:N:xstem:cue
4BB-/	1d	1F]	4ff\]
4C/	.	.	4ee\
4D/	.	.	2dd\
4BB-/	.	.	.
1F	2A/	0F	2cc\
.	2d\	.	2dd\
=20-	=20-	=20-	=20-
1FF	2.f\	.	1cc
.	4e\	.	.
1BB-	1d	1F	1dd
=21	=21	=21	=21
*M3/2	*M3/2	*M3/2	*M3/2
00.r	00.r	0B-	0dd
.	.	1F	1cc
=22-	=22-	=22-	=22-
.	.	1.G	1.b-
.	.	2G\	2b-/
.	.	1D	1a
=23-	=23-	=23-	=23-
00.r	00.r	0D	0ff
.	.	1A	1ee
=24-	=24-	=24-	=24-
.	.	1.B-	1.dd
.	.	2B-\	2dd\
.	.	1F	1cc
=25	=25	=25	=25
00.r	00.r	1G	1b-
.	.	1E-X	1b-
.	.	1C	1cc
=26-	=26-	=26-	=26-
.	.	0.D	0.a
=27-	=27-	=27-	=27-
0D	0f	00.r	00.r
1AA	1e	.	.
=28-	=28-	=28-	=28-
1.BB-	1.d	.	.
2BB-/	2d\	.	.
1FF	1f	.	.
=29	=29	=29	=29
0C	0e	00.r	00.r
1GG	1g	.	.
=30-	=30-	=30-	=30-
1.D	1.f	.	.
2D/	2f\	.	.
1BB-	1g	.	.
=31-	=31-	=31-	=31-
*col	*	*	*
0C	0e-X	00.r	00.r
0GG	1d	.	.
=32-	=32-	=32-	=32-
.	1.g	.	.
0D	.	.	.
.	4f#X\	.	.
.	4eny\	.	.
.	1f#	.	.
*Xcol	*	*	*
=33	=33	=33	=33
*M2/1	*M2/1	*M2/1	*M2/1
*met(C|)	*met(C|)	*met(C|)	*met(C|)
1GG	1g	2r	2r
.	.	1B-	1dd
1r	1r	.	.
.	.	2.f\	2.cc\
=34-	=34-	=34-	=34-
0r	0r	.	.
.	.	4f\	4cc\
.	.	2d\	2dd\
.	.	1e-X	4g/
.	.	.	4a/
.	.	.	4b-/
.	.	.	4g/
=35	=35	=35	=35
00r	00r	2d\	2a/
.	.	1D	1ff
.	.	2.A\	2.ee\
=36-	=36-	=36-	=36-
.	.	.	.
.	.	4A\	4ee\
.	.	2c\	2ee\
.	.	1B-	1dd
=37	=37	=37	=37
00r	00r	2A\	2cc#X\
.	.	1A	1ee
.	.	2F/	2ff\
=38-	=38-	=38-	=38-
.	.	2B-\	4gg\
.	.	.	4ff\
.	.	2d\	2.ff\
.	.	2c\	.
.	.	.	8ee\
.	.	.	8dd\
.	.	2C/	2ee\
=39	=39	=39	=39
2r	2r	1F	1ff
1FF	1a	.	.
.	.	1r	1r
2.C/	2.g\	.	.
=40-	=40-	=40-	=40-
.	.	0r	0r
4C/	4g\	.	.
2AA/	2a\	.	.
1D	1f	.	.
*custos:C	*custos:e	*custos:C	*custos:ee
!!LO:LB:g=original
=41	=41	=41	=41
2C/	2e\	2r	2r
1C	1e	1C	1ee
2.GG/	2.d\	2.D/	2.gg\
=42-	=42-	=42-	=42-
.	.	.	.
4GG/	4d\	4D/	4gg\
2GG/	2d\	2D/	2dd\
1D	1d	4D/	1ff
.	.	4E/	.
.	.	4F/	.
.	.	4G\	.
=43	=43	=43	=43
2AA/	2a\	4A\	2ee\
.	.	4AA/	.
1FF	1A	1C	1ff
2BB-/	2B-/	2D/	2dd\
=44-	=44-	=44-	=44-
2GG/	2d\	2D/	2ee\
2DD/	2a\	2D/	2dd\
1AA	1a	2E/	2cc#X\
.	.	4A\	4ee\
.	.	4A\	4ee\
=45	=45	=45	=45
1r	1r	2D/	2ff\
.	.	4G\	4dd\
.	.	2C/	2ee\
2r	2r	.	.
.	.	4D/	4dd\
4AA/	4a\	4.A\	4.cc#X\
4AA/	4a\	.	.
.	.	8A\	8cc#\
=46-	=46-	=46-	=46-
2D/	2f#X\	2D/	2dd\
!LO:N:acc=#	!	!	!
4BBn/	4g\	2r	2r
2C/	2e\	.	.
.	.	1r	1r
4FF/	4a\	.	.
4.C/	4.g#X\	.	.
8C/	8g#\	.	.
=47	=47	=47	=47
1FF	1a	2r	2r
.	.	1F	1ff
1r	1r	.	.
.	.	2.c\	2.ee\
=48-	=48-	=48-	=48-
0r	0r	.	.
.	.	4c\	4ee\
.	.	2A\	2ff\
.	.	1B-	1dd
=49	=49	=49	=49
0r	0r	2F/	2cc\
.	.	1D	1ff
.	.	2G\	2dd\
=50-	=50-	=50-	=50-
1r	1r	2C/	2ee-X\
.	.	2E-X/	2cc\
2r	2r	1D	1dd
4D/	4f#X\	.	.
4D/	4f#\	.	.
=51	=51	=51	=51
!LO:N:acc=#	!	!	!
2BBn/	2g\	0r	0r
4C/	4e\	.	.
2AA/	4.e\	.	.
.	8f\	.	.
4GG/	4g\	.	.
4.D/	4.f#X\	.	.
8D/	8f#\	.	.
=52-	=52-	=52-	=52-
1GG	1g	2r	2r
.	.	4G\	4dd\
.	.	4G\	4dd\
1r	1r	2C/	2ee\
.	.	4F/	4cc\
.	.	[<4D/	[<4ff\
=53	=53	=53	=53
1r	1r	4D/]	4ff\]
.	.	4BB-/	4dd\
.	.	4.F/	4.cc\
.	.	8F/	8cc\
2r	2r	2.BB-/	2.dd\
4r	4r	.	.
2FF/	2A/	2C/	2ff\
=54-	=54-	=54-	=54-
.	.	.	.
4FF/	4f\	4C/	4ff\
1C	1c	4C/	1ee
.	.	4D/	.
.	.	4E/	.
.	.	4C/	.
2AA/	2c/	2F/	2ff\
=55	=55	=55	=55
2BB-/	2F/	2F/	2dd\
2GG/	2B-/	2G\	2dd\
1.D	1.d	2A\	1.dd
.	.	2G\	.
=56-	=56-	=56-	=56-
.	.	2.A\	.
2D/	2d\	.	2dd\
.	.	4A\	.
2GG/	[>1d	1G	[<1dd
[>2G\	.	.	.
=57	=57	=57	=57
2G\]	1d]	00r	1dd]
2F\	.	.	.
2E-X\	2r	.	1r
2E-\	1g\	.	.
=58-	=58-	=58-	=58-
1D	.	.	0r
.	2f\	.	.
2r	2e-X\	.	.
[>2C/	2e-\	.	.
=59	=59	=59	=59
2C/]	2d\	00r	00r
2BB-/	1d	.	.
2AA/	.	.	.
2AA/	2c/	.	.
=60-	=60-	=60-	=60-
1GG	2B-/	.	.
.	2B-/	.	.
2.D/	2A/	.	.
.	4r	.	.
4BB-/	4d\	.	.
=61	=61	=61	=61
4BB-/	4d\	00r	00r
4BB-/	4d\	.	.
2FF/	2f\	.	.
2C/	2e\	.	.
2AA/	1f	.	.
=62-	=62-	=62-	=62-
1D	.	.	.
.	2d\	.	.
1DD	1d	.	.
=63	=63	=63	=63
0.GG	0.d	2r	2r
.	.	1B-	1dd
.	.	2A\	2cc\
=64-	=64-	=64-	=64-
.	.	2G\	2b-/
.	.	2G\	2b-/
1r	1r	2D/	1a
.	.	[<2d\	.
=65	=65	=65	=65
00r	00r	2d\]	2g/
.	.	2c\	2.a/
.	.	2B-\	.
.	.	.	8g/
.	.	.	8f/
.	.	1G	2g/
=66-	=66-	=66-	=66-
.	.	.	1a
.	.	2F/	.
.	.	2E-X/	2r
.	.	2E-/	[<2gg\
*custos:BB	*custos:d	*custos:D	*custos:gg
!!LO:LB:g=original
=67	=67	=67	=67
00r	00r	1D	2gg\]
.	.	.	2ff\
.	.	2G\	2ee-X\
.	.	2C/	2ee-\
=68-	=68-	=68-	=68-
.	.	2.G\	2.dd\
.	.	2D/	2ff\
.	.	4D/	4ff\
.	.	2F/	[<2cc\
=69	=69	=69	=69
0r	0r	2.C/	2cc\]
.	.	.	1ee-X
.	.	4D/	.
.	.	2E-X/	.
.	.	2BB-/	2dd\
=70-	=70-	=70-	=70-
1r	1r	2F/	2cc\
.	.	2F/	2cc\
2r	2r	1BB-	1dd
[<2BB-/	[<2d\	.	.
=71	=71	=71	=71
2BB-/]	2d\]	0r	0r
2AA/	2c/	.	.
2GG/	2B-/	.	.
2GG/	2B-/	.	.
=72-	=72-	=72-	=72-
1D	1A	1r	1r
[y1DD	2.d\	[y1D	[y1ff
.	4e\	.	.
=73	=73	=73	=73
!LO:N:xstem:cue:vis=4	!	!LO:N:xstem:cue:vis=4	!LO:N:xstem:cue:vis=4
2DD/]	4f\	2D/]	2ff\]
.	4g\	.	.
2AA/	4a\	2C/	2ee\
.	4A/	.	.
2.BB-/	2d\	4BB-/	2dd\
.	.	4C/	.
.	2B-/	4D/	2dd\
4BB-/	.	4BB-/	.
=74-	=74-	=74-	=74-
4FF/	4f\	4C/	4cc\
2FF/	2f\	2C/	2ff\
4FF/	4f\	4C/	4ff\
2C/	2c/	2C/	2ee\
2AA/	2f\	2C/	2ff\
=75	=75	=75	=75
2.BB-/	2f\	1.D	2.dd\
.	2f\	.	.
4AA/	.	.	4cc\
2GG/	2.B-/	.	2b-/
2GG/	.	2D/	2b-/
.	8A/	.	.
.	8G/	.	.
=76-	=76-	=76-	=76-
1DD	2.d\	1D	1a
.	4c/	.	.
!	!LO:N:acc=#	!	!LO:N:acc=#
1GG	1Bn	2D/	2bn/
.	.	[y2G\	[y2dd\
=77	=77	=77	=77
!	!	!LO:N:xstem:cue	!LO:N:xstem:cue
0r	0r	4G\]	4dd\]
.	.	4G\	4dd\
.	.	2G\	2dd\
.	.	4C/	1ee-X
.	.	4D/	.
.	.	4E-X/	.
.	.	4C/	.
=78-	=78-	=78-	=78-
2r	2r	2G\	2dd\
2.C/	2.e-X\	2.G\	2.gg\
4C/	8d\	4G\	4gg\
.	8c\	.	.
!LO:N:acc=#	!	!	!
2BBn/	2g\	4G\	2dd\
.	.	4F/	.
=79	=79	=79	=79
0.C	2.g\	4E-X/	2.ee-X\
.	.	4C/	.
.	.	4E-/	.
.	4f\	4F/	4dd\
.	2e-X\	1G	4cc\
.	.	.	4g/
.	1c	.	4cc\
.	.	.	4dd\
=80-	=80-	=80-	=80-
.	.	1C	1ee-X
.	2c/	.	.
1GGl	1gl	1Dl	1ddl
==	==	==	==
*-	*-	*-	*-
!!!system-decoration: *
!!!RDF**kern: > = above
!!!RDF**kern: < = below
!!!RDF**kern: l = terminal long
!!!ENC: Andrzej Gręziak
!!!END: 2021-12-23
!!!ENC: Andrzej Kubiczek
!!!END: 2021-12-23
